X:97
T: Der Maibaum
N: A0113
O: Europa, Mitteleuropa, Deutschland
N: "Herzlich thut mich erfreuen" Rhaw, Bicinia 1545 I, 91.
R: Romanze, Ballade, Lied
M: 4/4
L: 1/8
K: F
F2 | F2F2A2F2 | c4c2
f2 | e2c2d2c2 | A4z2
F2 | c2c2d2e2 | f4e2
d2 | c3BA2G2 | F4z2
A2 | c2d2c2A2 | B4A2
G2 | A2B2c2A2 | G4z2
d2 | c2B2A2G2 | F4G2
d2 | c2A2B2G2 | F4z2

@@@ Tune index: 97
